X: 1
T:A Bonny Lass to Marry me
M:2/2
L:1/8
S:Armitt MS
K:G major
D2|G2BG AGBG|D2BG A>GEA|G/2G/2G BG cBAB|GBGE D/2D/2DD2:||:dgdB A>GAB|dgB
g cBE2|(de/2f/2g)B A>GAB|GBGE ED D2:||
